layouts/icon-pack/spell_earth.svg

<?xml version="1.0" encoding="UTF-8"?>
<svg width="1200pt" height="1200pt" version="1.1" viewBox="0 0 1200 1200" xmlns="http://www.w3.org/2000/svg">
 <g fill="#fff">
  <path d="m561.12 692.72-175.03-76.172c-2.4844-1.0508-5.3477-0.58594-7.3711 1.1914-2.0273 1.7773-2.8594 4.5547-2.1445 7.1523l39.844 139.71c5.6367 9.2266 13.758 16.676 23.438 21.492l126.38 63.281c3.7461 1.7969 8.168 1.4688 11.613-0.85156 3.4453-2.3242 5.4023-6.2969 5.1445-10.445l-10.078-128.74c-0.26172-3.582-1.4961-7.0234-3.5742-9.9531-2.0781-2.9297-4.918-5.2344-8.2148-6.6641z"/>
  <path d="m528.84 423.7-190.85 8.0625c-3.9453 0.16797-7.5977 2.1289-9.9102 5.3281-2.3164 3.1953-3.043 7.2773-1.9727 11.078l26.016 91.125c2.4062 8.457 8.4805 15.391 16.547 18.891l199.64 86.906c5.6875 2.4805 12.012 3.0977 18.07 1.7617 6.0586-1.3359 11.539-4.5508 15.656-9.1914l89.062-100.27c2.5195-2.832 3.6641-6.6289 3.1289-10.379-0.53125-3.75-2.6875-7.0781-5.8945-9.0977l-142.57-89.719c-5.0508-3.1875-10.953-4.7578-16.922-4.5z"/>
  <path d="m291.52 373.64c6.5781 8.2422 16.699 12.84 27.234 12.375l224.6-9.375c4.7188-0.17969 9.3789 1.0625 13.383 3.5625l161.72 101.86c4.7617 3.0078 10.355 4.4219 15.977 4.043 5.6211-0.37891 10.973-2.5352 15.289-6.1523l112.17-93.75c5.082-4.2617 10.73-7.8047 16.781-10.523l178.92-80.883c4.3008-1.9453 7.3594-5.8945 8.1641-10.547 0.80859-4.6484-0.73828-9.3984-4.1328-12.68l-108.47-104.81c-9.3828-9.0781-22.32-13.5-35.297-12.07l-161.91 17.648c-10.777 1.1836-21.68-0.32422-31.734-4.3828l-161.2-64.828c-9.707-3.9258-20.395-4.7461-30.586-2.3438-125.51 29.461-305.74 50.227-380.77 58.102-3.8438 0.41406-7.4102 2.1992-10.047 5.0234-2.6367 2.8281-4.168 6.5078-4.3164 10.371-0.14844 3.8633 1.0977 7.6484 3.5117 10.668z"/>
  <path d="m720.61 1068.5 25.5-109.38 89.648-468.02c0.82422-4.0547-1.0078-8.1875-4.5664-10.301-3.5586-2.1094-8.0664-1.7383-11.23 0.92578l-43.453 36.328c-15.633 13.07-30.273 27.281-43.805 42.516l-101.51 114.47c-8.4453 9.4688-12.676 21.965-11.719 34.617l19.758 252.05c1.7852 8.5117 4.9531 16.676 9.375 24.164l51.094 85.969c2.3398 4.082 6.957 6.2891 11.602 5.5508 4.6445-0.73828 8.3477-4.2734 9.3047-8.8789z"/>
  <path d="m893.62 436.22-53.039 276.87c-0.63281 3.3398 0.92578 6.7109 3.875 8.3984 2.9492 1.6875 6.6445 1.3164 9.2031-0.92188l111.75-97.922c8.1523-7.1367 13.762-16.727 15.984-27.328 16.605-77.277 41.98-152.4 75.633-223.92 2.3789-4.9883 1.3867-10.934-2.4883-14.875-3.875-3.9453-9.8008-5.043-14.832-2.75l-126.07 56.977c-10.406 4.7461-17.867 14.242-20.016 25.477z"/>
  <path d="m314.23 576.05-40.828-142.97c-2.2109-7.6797-5.9141-14.848-10.898-21.094l-95.438-119.53c-1.8828-2.3242-5.1367-3.0039-7.793-1.6328-2.6562 1.375-3.9844 4.4258-3.1758 7.3047l68.766 237.49c4.4102 15.273 13.582 28.742 26.18 38.438l65.156 50.25c2.1562 1.6445 5.125 1.7266 7.3672 0.19922 2.2461-1.5234 3.2617-4.3164 2.5234-6.9258z"/>
  <path d="m120.52 636.54 73.078 77.977c4.1953 4.4844 4.0703 11.488-0.28125 15.82l-41.742 41.484c-3.8281 3.8047-9.8086 4.3828-14.297 1.3828l-53.273-35.484c-4.0312-2.6758-5.918-7.6211-4.6875-12.305l21.938-83.977c1.0391-4.0039 4.1758-7.125 8.1836-8.1445 4.0117-1.0195 8.2578 0.22266 11.082 3.2461z"/>
  <path d="m501.73 958.1v50.766c0.042969 5.3438 3.1133 10.203 7.9219 12.539l47.531 22.688c3.3164 1.5703 7.2344 1.1602 10.152-1.0625 2.9219-2.2266 4.3555-5.8906 3.7227-9.5078l-11.719-65.25c-0.92969-5.1797-4.7031-9.3867-9.75-10.875l-33.703-9.9141c-3.3398-0.96484-6.9414-0.30078-9.7227 1.7852-2.7812 2.0859-4.4219 5.3555-4.4336 8.832z"/>
  <path d="m201.75 1006.4 19.477 55.828c1.5156 4.3359 1.5977 9.0391 0.23438 13.426-1.3633 4.3828-4.1016 8.2148-7.8047 10.926l-13.57 9.8906c-3.8594 2.8203-8.5547 4.2695-13.332 4.1133-4.7812-0.15625-9.3672-1.9102-13.035-4.9805l-24.914-20.883c-4.5508-3.8008-7.3164-9.3164-7.6445-15.238-0.32422-5.918 1.8242-11.707 5.9336-15.98l38.883-40.547c2.2578-2.4297 5.6289-3.4883 8.8711-2.7812 3.2383 0.71094 5.8633 3.0781 6.9023 6.2266z"/>
  <path d="m1042.4 687.54-19.242 84.609c-0.86719 3.8047 0.46094 7.7734 3.4453 10.289l31.031 26.156c2.168 1.8281 4.9883 2.6953 7.8125 2.3984 2.8203-0.29688 5.3984-1.7305 7.1406-3.9688l46.266-59.625c3.3672-4.3594 2.7695-10.582-1.3594-14.227l-58.031-51.141c-2.7617-2.4297-6.5977-3.2305-10.098-2.0977-3.5 1.1289-6.1484 4.0195-6.9648 7.6055z"/>
  <path d="m962.95 986.34-44.766 58.148c-2.5625 3.3086-2.1758 8.0273 0.89062 10.875l19.781 18.375c2.2969 2.1367 5.6172 2.7578 8.5312 1.5938l62.766-25.195c2.5898-1.0273 4.4688-3.3125 4.9727-6.0508 0.50391-2.7383-0.4375-5.543-2.4883-7.4258-15.047-13.738-27.27-30.281-35.977-48.703-1.1875-2.5508-3.6094-4.3047-6.4023-4.6367-2.7969-0.32812-5.5625 0.8125-7.3086 3.0195z"/>
 </g>
</svg>

<?xml version="1.0" encoding="UTF-8" standalone="no"?>
<!DOCTYPE svg PUBLIC "-//W3C//DTD SVG 1.1//EN" "http://www.w3.org/Graphics/SVG/1.1/DTD/svg11.dtd">
<svg width="100%" height="100%" viewBox="0 0 512 492" version="1.1" xmlns="http://www.w3.org/2000/svg" xmlns:xlink="http://www.w3.org/1999/xlink" xml:space="preserve" xmlns:serif="http://www.serif.com/" style="fill-rule:evenodd;clip-rule:evenodd;stroke-linejoin:round;stroke-miterlimit:2;">
    <g transform="matrix(1,0,0,1,-78.9451,-99.4344)">
        <g transform="matrix(0.491322,0,0,0.491322,40.1577,50.5801)">
            <path d="M561.12,692.72L386.09,616.548C383.606,615.497 380.742,615.962 378.719,617.739C376.692,619.517 375.86,622.294 376.574,624.892L416.418,764.602C422.055,773.828 430.176,781.278 439.856,786.094L566.236,849.375C569.983,851.172 574.404,850.843 577.849,848.523C581.295,846.199 583.252,842.226 582.994,838.078L572.916,709.338C572.654,705.756 571.42,702.315 569.342,699.385C567.264,696.455 564.424,694.151 561.127,692.721L561.12,692.72Z" style="fill:white;fill-rule:nonzero;"/>
            <path d="M528.84,423.7L337.99,431.763C334.045,431.93 330.392,433.891 328.08,437.091C325.763,440.286 325.037,444.368 326.107,448.169L352.123,539.294C354.529,547.751 360.604,554.685 368.67,558.185L568.31,645.091C573.998,647.571 580.322,648.188 586.38,646.852C592.439,645.516 597.919,642.302 602.036,637.661L691.098,537.391C693.618,534.559 694.762,530.762 694.227,527.012C693.696,523.262 691.54,519.934 688.333,517.914L545.763,428.195C540.712,425.008 534.81,423.437 528.841,423.695L528.84,423.7Z" style="fill:white;fill-rule:nonzero;"/>
            <path d="M291.52,373.64C298.098,381.882 308.219,386.48 318.754,386.015L543.354,376.64C548.073,376.46 552.733,377.703 556.737,380.203L718.457,482.063C723.219,485.07 728.812,486.484 734.434,486.106C740.055,485.727 745.407,483.57 749.723,479.953L861.893,386.203C866.975,381.941 872.623,378.398 878.674,375.68L1057.59,294.797C1061.89,292.852 1064.95,288.903 1065.76,284.25C1066.57,279.602 1065.02,274.852 1061.62,271.57L953.155,166.76C943.772,157.682 930.835,153.26 917.858,154.69L755.948,172.338C745.171,173.522 734.268,172.014 724.214,167.955L563.014,103.127C553.307,99.202 542.619,98.381 532.428,100.784C406.918,130.245 226.688,151.011 151.658,158.886C147.814,159.3 144.248,161.085 141.611,163.909C138.975,166.737 137.443,170.417 137.295,174.28C137.146,178.143 138.393,181.928 140.807,184.948L291.52,373.64Z" style="fill:white;fill-rule:nonzero;"/>
            <path d="M720.61,1068.5L746.11,959.12L835.758,491.1C836.582,487.045 834.75,482.913 831.192,480.799C827.633,478.69 823.125,479.061 819.962,481.725L776.509,518.053C760.876,531.123 746.236,545.334 732.704,560.569L631.194,675.039C622.748,684.508 618.518,697.004 619.475,709.656L639.233,961.706C641.018,970.217 644.186,978.382 648.608,985.87L699.702,1071.84C702.041,1075.92 706.659,1078.13 711.304,1077.39C715.948,1076.65 719.651,1073.12 720.608,1068.51L720.61,1068.5Z" style="fill:white;fill-rule:nonzero;"/>
            <path d="M893.62,436.22L840.581,713.09C839.948,716.43 841.507,719.801 844.456,721.488C847.405,723.176 851.101,722.805 853.659,720.567L965.409,622.645C973.561,615.508 979.171,605.918 981.393,595.317C997.998,518.04 1023.37,442.917 1057.03,371.397C1059.4,366.408 1058.41,360.463 1054.54,356.522C1050.66,352.576 1044.74,351.479 1039.71,353.772L913.636,410.749C903.23,415.495 895.769,424.991 893.62,436.226L893.62,436.22Z" style="fill:white;fill-rule:nonzero;"/>
            <path d="M314.23,576.05L273.402,433.08C271.191,425.4 267.488,418.232 262.504,411.986L167.066,292.456C165.183,290.132 161.929,289.452 159.273,290.823C156.617,292.198 155.289,295.249 156.097,298.128L224.863,535.618C229.273,550.891 238.445,564.36 251.043,574.056L316.199,624.306C318.355,625.95 321.324,626.032 323.566,624.505C325.813,622.982 326.828,620.189 326.09,617.579L314.23,576.05Z" style="fill:white;fill-rule:nonzero;"/>
            <path d="M120.52,636.54L193.598,714.517C197.793,719.001 197.668,726.005 193.317,730.337L151.575,771.821C147.747,775.626 141.766,776.204 137.278,773.204L84.005,737.72C79.974,735.044 78.087,730.099 79.317,725.415L101.255,641.438C102.294,637.434 105.431,634.313 109.439,633.293C113.451,632.274 117.697,633.516 120.521,636.539L120.52,636.54Z" style="fill:white;fill-rule:nonzero;"/>
            <path d="M501.73,958.1L501.73,1008.87C501.773,1014.21 504.843,1019.07 509.652,1021.4L557.183,1044.09C560.499,1045.66 564.417,1045.25 567.335,1043.03C570.257,1040.8 571.69,1037.14 571.058,1033.52L559.339,968.273C558.409,963.093 554.636,958.886 549.589,957.398L515.886,947.484C512.546,946.519 508.944,947.183 506.163,949.269C503.382,951.355 501.741,954.624 501.729,958.101L501.73,958.1Z" style="fill:white;fill-rule:nonzero;"/>
            <path d="M201.75,1006.4L221.227,1062.23C222.743,1066.56 222.825,1071.27 221.461,1075.65C220.098,1080.04 217.36,1083.87 213.657,1086.58L200.087,1096.47C196.227,1099.29 191.532,1100.74 186.755,1100.58C181.973,1100.43 177.387,1098.67 173.72,1095.6L148.806,1074.72C144.255,1070.92 141.489,1065.4 141.161,1059.48C140.837,1053.56 142.985,1047.78 147.095,1043.5L185.978,1002.96C188.236,1000.53 191.607,999.467 194.849,1000.17C198.087,1000.88 200.712,1003.25 201.751,1006.4L201.75,1006.4Z" style="fill:white;fill-rule:nonzero;"/>
            <path d="M1042.4,687.54L1023.16,772.149C1022.29,775.954 1023.62,779.922 1026.6,782.438L1057.63,808.594C1059.8,810.422 1062.62,811.289 1065.45,810.992C1068.27,810.696 1070.85,809.262 1072.59,807.024L1118.85,747.399C1122.22,743.039 1121.62,736.817 1117.49,733.172L1059.46,682.031C1056.7,679.601 1052.87,678.8 1049.37,679.933C1045.87,681.062 1043.22,683.952 1042.4,687.538L1042.4,687.54Z" style="fill:white;fill-rule:nonzero;"/>
            <path d="M962.95,986.34L918.184,1044.49C915.622,1047.8 916.008,1052.52 919.075,1055.36L938.856,1073.74C941.153,1075.88 944.473,1076.5 947.387,1075.33L1010.15,1050.14C1012.74,1049.11 1014.62,1046.82 1015.13,1044.09C1015.63,1041.35 1014.69,1038.54 1012.64,1036.66C997.59,1022.92 985.367,1006.38 976.66,987.957C975.473,985.406 973.051,983.653 970.258,983.321C967.461,982.992 964.695,984.133 962.949,986.34L962.95,986.34Z" style="fill:white;fill-rule:nonzero;"/>
        </g>
    </g>
</svg>
